svg/material-icons/view_quilt/materialiconsround/20px.svg

<svg xmlns="http://www.w3.org/2000/svg" width="20" height="20" viewBox="0 0 20 20"><path d="M8 14.5V11c0-.28.22-.5.5-.5h3c.28 0 .5.22.5.5v3.5c0 .28-.22.5-.5.5h-3c-.28 0-.5-.22-.5-.5zm0-9V9c0 .28.22.5.5.5h8c.28 0 .5-.22.5-.5V5.5c0-.28-.22-.5-.5-.5h-8c-.28 0-.5.22-.5.5zm-1 9v-9c0-.28-.22-.5-.5-.5h-3c-.28 0-.5.22-.5.5v9c0 .28.22.5.5.5h3c.28 0 .5-.22.5-.5zm6-3.5v3.5c0 .28.22.5.5.5h3c.28 0 .5-.22.5-.5V11c0-.28-.22-.5-.5-.5h-3c-.28 0-.5.22-.5.5z"/></svg>

<svg xmlns="http://www.w3.org/2000/svg" enable-background="new 0 0 20 20" height="20" viewBox="0 0 20 20" width="20"><rect fill="none" height="20" width="20"/><path d="M8,14.5V11c0-0.28,0.22-0.5,0.5-0.5h3c0.28,0,0.5,0.22,0.5,0.5v3.5c0,0.28-0.22,0.5-0.5,0.5h-3C8.22,15,8,14.78,8,14.5z M8,5.5V9c0,0.28,0.22,0.5,0.5,0.5h8C16.78,9.5,17,9.28,17,9V5.5C17,5.22,16.78,5,16.5,5h-8C8.22,5,8,5.22,8,5.5z M7,14.5v-9 C7,5.22,6.78,5,6.5,5h-3C3.22,5,3,5.22,3,5.5v9C3,14.78,3.22,15,3.5,15h3C6.78,15,7,14.78,7,14.5z M13,11v3.5 c0,0.28,0.22,0.5,0.5,0.5h3c0.28,0,0.5-0.22,0.5-0.5V11c0-0.28-0.22-0.5-0.5-0.5h-3C13.22,10.5,13,10.72,13,11z"/></svg>
